X: 105
T: the Honest Man   #2
R: air
%S: s:3 b:12(4+4+4)
B: O'Neill's 1850 #105
O: J.O'Neill
Z: henrik.norbeck@mailbox.swipnet.se
Q: "Moderate"
M: 3/4
L: 1/8
K: D
"^A"|: D/E/ (.F/.G/.A/.B/) | =c2 (d>c) (Bc/B/) | A>F DD/E/ (.F/.G/.A/{c}.B/) | A2 G>F (.D.D) | D3 :|
"^B"[| (F/G/) (Ad/e/) | f2 (ge/>c/) dd | d>c (AF/G/) (Ad/e/) | f2 {a}(gf) (e>d) | {cde}Hd3 |]
"^C"[| =c Bc/B/ | A2 (AB/c/) dA | G>F DD/E/ (.F/.G/.A/{c}.B/) | A2 G>F DD | D3 |]
